icons/bring-forward.svg

<svg xmlns="http://www.w3.org/2000/svg" width="24" height="24" fill="none"><g clip-path="url(#a)"><g><path fill="#121212" d="M14 3C14.552 3 15 3.448 15 4V9H20C20.552 9 21 9.448 21 10V20C21 20.552 20.552 21 20 21H10C9.448 21 9 20.552 9 20V15H4C3.448 15 3 14.552 3 14V4C3 3.448 3.448 3 4 3H14ZM13 5H5V13H13V5Z"/></g></g><defs><clipPath id="a"><rect width="24" height="24" fill="white"/></clipPath></defs></svg>

<svg width="24" height="24" fill="none" xmlns="http://www.w3.org/2000/svg"><g clip-path="url(#a)"><path d="M14 3a1 1 0 0 1 1 1v5h5a1 1 0 0 1 1 1v10a1 1 0 0 1-1 1H10a1 1 0 0 1-1-1v-5H4a1 1 0 0 1-1-1V4a1 1 0 0 1 1-1h10Zm-1 2H5v8h8V5Z" /></g><defs><clipPath id="a"><path fill="#fff" d="M0 0h24v24H0z"/></clipPath></defs></svg>
